.local/share/icons/Gruvbox-Plus-Dark/actions/22/new-24h-appointment.svg

<svg width="22" height="22" version="1.1" xmlns="http://www.w3.org/2000/svg">
  <defs>
    <style id="current-color-scheme" type="text/css">.ColorScheme-Text { color:#ebdbb2; } .ColorScheme-Highlight { color:#458588; }</style>
  </defs>
  <path class="ColorScheme-Text" d="m10.5 4a7.5 7.5 0 0 0-7.5 7.5 7.5 7.5 0 0 0 7.5 7.5 7.5 7.5 0 0 0 7.5-7.5 7.5 7.5 0 0 0-7.5-7.5zm-4.5 3h4v5h-3v3h3v1h-4v-5h3v-3h-3v-1zm5 0h1v4h2v-4h1v9h-1v-4h-3v-5z" fill="currentColor"/>
</svg>

<svg xmlns="http://www.w3.org/2000/svg" width="22" height="22" version="1.1" viewBox="0 0 22 22">
 <defs>
  <style id="current-color-scheme" type="text/css">
   .ColorScheme-Text { color:#ebdbb2; } .ColorScheme-Highlight { color:#458588; }
  </style>
 </defs>
 <path style="fill:currentColor" class="ColorScheme-Text" d="M 10.5,4 A 7.5,7.5 0 0 0 3,11.5 7.5,7.5 0 0 0 10.5,19 7.5,7.5 0 0 0 18,11.5 7.5,7.5 0 0 0 10.5,4 Z M 6,7 l 3,0 1,0 0,1 0,3 0,1 -3,0 0,3 3,0 0,1 -4,0 0,-1 0,-3 0,-1 1,0 2,0 L 9,8 6,8 6,7 Z m 5,0 1,0 0,4 2,0 0,-4 1,0 0,4 0,1 0,4 -1,0 0,-4 -3,0 0,-1 0,-4 z"/>
</svg>
